src/assets/icons/gear.svg

<svg widh="100%" height="100%" viewBox="0 0 24 24" fill="current"
  xmlns="http://www.w3.org/2000/svg">
  <path d="M19.8059 13.8L18.9059 13.275C17.9309 12.675 17.9309 11.25 18.9059 10.65L19.8059 10.125C20.5559 9.675 20.7809 8.775 20.3309 8.1L19.5809 6.825C19.1309 6.075 18.2309 5.85 17.5559 6.3L16.6559 6.825C15.6809 7.425 14.4059 6.675 14.4059 5.55V4.5C14.4059 3.675 13.7309 3 12.9059 3H11.4059C10.5809 3 9.90593 3.675 9.90593 4.5V5.475C9.90593 6.6 8.63093 7.35 7.65593 6.75L6.75589 6.3C6.00589 5.85 5.10589 6.15 4.73089 6.825L3.98089 8.1C3.60589 8.85 3.83089 9.75 4.50589 10.2L5.40589 10.725C6.38089 11.25 6.38089 12.75 5.40589 13.275L4.50589 13.8C3.75589 14.25 3.53089 15.15 3.98089 15.825L4.73089 17.1C5.18089 17.85 6.08089 18.075 6.75589 17.625L7.65593 17.175C8.63093 16.575 9.90593 17.325 9.90593 18.45V19.5C9.90593 20.325 10.5809 21 11.4059 21H12.9059C13.7309 21 14.4059 20.325 14.4059 19.5V18.525C14.4059 17.4 15.6809 16.65 16.6559 17.25L17.5559 17.775C18.3059 18.225 19.2059 17.925 19.5809 17.25L20.3309 15.975C20.7059 15.15 20.4809 14.25 19.8059 13.8ZM12.1559 15C10.5059 15 9.15593 13.65 9.15593 12C9.15593 10.35 10.5059 9 12.1559 9C13.8059 9 15.1559 10.35 15.1559 12C15.1559 13.65 13.8059 15 12.1559 15Z"/>
</svg>

<svg xmlns="http://www.w3.org/2000/svg" fill="currentColor" viewBox="0 0 24 24">
  <path d="m19.806 13.8-.9-.525a1.544 1.544 0 0 1 0-2.625l.9-.525c.75-.45.975-1.35.525-2.025l-.75-1.275c-.45-.75-1.35-.975-2.025-.525l-.9.525c-.975.6-2.25-.15-2.25-1.275V4.5c0-.825-.675-1.5-1.5-1.5h-1.5c-.825 0-1.5.675-1.5 1.5v.975c0 1.125-1.275 1.875-2.25 1.275l-.9-.45c-.75-.45-1.65-.15-2.025.525L3.98 8.1c-.375.75-.15 1.65.525 2.1l.9.525c.975.525.975 2.025 0 2.55l-.9.525c-.75.45-.975 1.35-.525 2.025l.75 1.275c.45.75 1.35.975 2.025.525l.9-.45c.975-.6 2.25.15 2.25 1.275v1.05c0 .825.675 1.5 1.5 1.5h1.5c.825 0 1.5-.675 1.5-1.5v-.975c0-1.125 1.275-1.875 2.25-1.275l.9.525c.75.45 1.65.15 2.025-.525l.75-1.275c.375-.825.15-1.725-.525-2.175Zm-7.65 1.2c-1.65 0-3-1.35-3-3s1.35-3 3-3 3 1.35 3 3-1.35 3-3 3Z"/>
</svg>
